X: 38441
T: Starry Nights Of Shetland, The
R: waltz
M: 3/4
K: Dmajor
|:A2|f4 d2|A3 B A^G|G4 B2|c4 B2|
A4 c2|1 e4 A2|f3 g f^e|f4:|2 g2 B2- Bc|d3 e e/d/c|d4||
d/e/f|g2 B2- Bg|g2 B2 g2|f2 A2- Af|f2 A2 f2|
f3 A d/e/f|a3 g f2|e2 c2- cB|A3 A de|
f4 d2|A2 B2 A2|G3 D G/A/B|c4 B2|
A3 c d/e/f|g2 B2- Bc|d2 A2 F2|D4||

